16x16/apps/com.github.parnold-x.timer.svg

<svg height="16" width="16" xmlns="http://www.w3.org/2000/svg"><path d="m6.129 11.04c-.375-.02-.806.15-1.149.493l-1.484 1.487c-.548.548-.66 1.32-.248 1.732.411.411 1.184.3 1.732-.248l1.485-1.484c.548-.549.66-1.322.248-1.733a.876.876 0 0 0 -.584-.248zm3.703 0a.876.876 0 0 0 -.584.247c-.411.411-.3 1.184.248 1.733l1.484 1.484c.549.548 1.322.657 1.733.246s.3-1.182-.248-1.73l-1.485-1.487c-.342-.343-.773-.514-1.148-.494z" fill="#4f4f4f"/><path d="m2.5 1a2.5 2.5 0 0 0 -2.5 2.5 2.5 2.5 0 0 0 2.5 2.5 2.5 2.5 0 0 0 2.5-2.5 2.5 2.5 0 0 0 -2.5-2.5zm11 0a2.5 2.5 0 0 0 -2.5 2.5 2.5 2.5 0 0 0 2.5 2.5 2.5 2.5 0 0 0 2.5-2.5 2.5 2.5 0 0 0 -2.5-2.5z" fill="#48a040"/><rect fill="#48a040" height="14" rx="7" transform="matrix(0 -1 -1 0 0 0)" width="14" x="-15" y="-15"/><rect fill="#f4f4f7" height="10" opacity=".7" rx="5" transform="matrix(0 -1 -1 0 0 0)" width="10" x="-13" y="-13"/><path d="m7.065 8.784 1.09 1.86c.199.341.638.457.984.26s.464-.63.264-.97l-1.081-1.849 2.497-1.422c.173-.099.232-.315.132-.486s-.319-.228-.492-.13l-2.996 1.707c-.408.2-.563.726-.398 1.03z" opacity=".7"/></svg>

<svg xmlns="http://www.w3.org/2000/svg" width="16" height="16" version="1"><path style="fill:#4f4f4f" d="M6.129 11.04c-.375-.02-.806.15-1.149.493L3.496 13.02c-.548.548-.66 1.32-.248 1.732.411.411 1.184.3 1.732-.248l1.485-1.484c.548-.549.66-1.322.248-1.733a.876.876 0 0 0-.584-.248zm3.703 0a.876.876 0 0 0-.584.247c-.411.411-.3 1.184.248 1.733l1.484 1.484c.549.548 1.322.657 1.733.246.411-.411.3-1.182-.248-1.73l-1.485-1.487c-.342-.343-.773-.514-1.148-.494z"/><path fill="#48a040" d="M2.5 1A2.5 2.5 0 0 0 0 3.5 2.5 2.5 0 0 0 2.5 6 2.5 2.5 0 0 0 5 3.5 2.5 2.5 0 0 0 2.5 1zm11 0A2.5 2.5 0 0 0 11 3.5 2.5 2.5 0 0 0 13.5 6 2.5 2.5 0 0 0 16 3.5 2.5 2.5 0 0 0 13.5 1z"/><rect fill="#48a040" width="14" height="14" x="-15" y="-15" rx="7" ry="7" transform="matrix(0 -1 -1 0 0 0)"/><rect style="opacity:.7;fill:#f4f4f7" width="10" height="10" x="-13" y="-13" rx="5" ry="5" transform="matrix(0 -1 -1 0 0 0)"/><path opacity=".7" d="m7.065 8.784 1.09 1.86c.199.341.638.457.984.26s.464-.63.264-.97L8.322 8.085l2.497-1.422c.173-.099.232-.315.132-.486s-.319-.228-.492-.13L7.463 7.754c-.408.2-.563.726-.398 1.03z"/></svg>
